X:065
T:Bear Dance
M:4/4
K:Am
eA A2 eA A2 | cc Bc d2 cd | 
ee dd cc B2 | Ac BG A4 :|| 
Ac Ac BG G2 | Ac Ac d2 cd | 
ee dd cc B2 | Ac BG A4 :|| 

